img/fylo-logo.svg

<svg width="80" height="24" viewBox="0 0 80 24" fill="none" xmlns="http://www.w3.org/2000/svg">
<path fill-rule="evenodd" clip-rule="evenodd" d="M0 7.55609V7.61529L13.5246 13.9679L27.0968 7.59367V7.57767L13.5246 1.20372L0 7.55609ZM4.87581 7.58584L13.5248 3.52348L22.1747 7.58584L13.5246 11.6479L4.87581 7.58584ZM13.5246 16.4353L0 10.1778V12.4922L13.5246 18.764L27.0968 12.4709V10.1562L13.5246 16.4353ZM13.5246 21.1293L0 14.8712V17.1856L13.5246 23.4583L27.0968 17.1643V14.8498L13.5246 21.1293Z" fill="white"/>
<path fill-rule="evenodd" clip-rule="evenodd" d="M76.9165 12.1019C76.9165 11.5652 76.8237 11.0648 76.6381 10.6006C76.4525 10.1365 76.1991 9.73035 75.8779 9.38222C75.5567 9.03408 75.182 8.76211 74.7537 8.5663C74.3254 8.37049 73.8686 8.27257 73.3832 8.27257C72.8979 8.27257 72.441 8.37049 72.0128 8.5663C71.5845 8.76211 71.2097 9.03408 70.8886 9.38222C70.5673 9.73035 70.3139 10.1365 70.1284 10.6006C69.9428 11.0648 69.85 11.5652 69.85 12.1019C69.85 12.6386 69.9428 13.1391 70.1284 13.6032C70.3139 14.0674 70.5673 14.4735 70.8886 14.8216C71.2097 15.1698 71.5845 15.4418 72.0128 15.6376C72.441 15.8334 72.8979 15.9313 73.3832 15.9313C73.8686 15.9313 74.3254 15.8334 74.7537 15.6376C75.182 15.4418 75.5567 15.1698 75.8779 14.8216C76.1991 14.4735 76.4525 14.0674 76.6381 13.6032C76.8237 13.1391 76.9165 12.6386 76.9165 12.1019ZM80 12.1019C80 13.0448 79.8287 13.9187 79.4861 14.7237C79.1435 15.5288 78.6724 16.225 78.0728 16.8125C77.4732 17.3999 76.7702 17.8641 75.9636 18.205C75.157 18.5458 74.2969 18.7163 73.3832 18.7163C72.4696 18.7163 71.613 18.5458 70.8136 18.205C70.0142 17.8641 69.3146 17.3963 68.7151 16.8016C68.1155 16.2069 67.6444 15.507 67.3018 14.702C66.9592 13.897 66.7878 13.0303 66.7878 12.1019C66.7878 11.1881 66.9627 10.3287 67.3125 9.52363C67.6622 8.71859 68.1369 8.01509 68.7365 7.41313C69.336 6.81116 70.0356 6.33976 70.835 5.99888C71.6344 5.65802 72.4838 5.48757 73.3832 5.48757C74.2969 5.48757 75.157 5.65802 75.9636 5.99888C76.7702 6.33976 77.4732 6.80391 78.0728 7.39137C78.6724 7.97884 79.1435 8.67871 79.4861 9.49099C79.8287 10.3033 80 11.1736 80 12.1019ZM65.7172 18.3246C65.4745 18.4407 65.1997 18.535 64.8928 18.6075C64.5858 18.68 64.2682 18.7163 63.9398 18.7163C63.483 18.7163 63.044 18.6546 62.6229 18.5314C62.2018 18.4081 61.8342 18.2086 61.5201 17.933C61.206 17.6574 60.9562 17.2984 60.7706 16.856C60.585 16.4136 60.4922 15.8805 60.4922 15.2568V0.330994H63.64V14.7129C63.64 15.235 63.7435 15.594 63.9505 15.7899C64.1576 15.9857 64.4038 16.0836 64.6893 16.0836C65.0462 16.0836 65.3888 15.9748 65.7172 15.7572V18.3247V18.3246ZM59.1003 5.79219L53.5328 20.7398C53.1188 21.8567 52.5763 22.6617 51.9054 23.1549C51.2344 23.6481 50.435 23.8946 49.5071 23.8946C49.3643 23.8946 49.2073 23.8838 49.036 23.862C48.8646 23.8402 48.7005 23.8076 48.5435 23.7641L47.5156 20.8486C47.7583 20.9646 48.0081 21.0552 48.2651 21.1205C48.522 21.1858 48.7647 21.2184 48.9931 21.2184C49.4785 21.2184 49.9211 21.106 50.3208 20.8812C50.7205 20.6564 51.0274 20.2393 51.2416 19.6301L51.6698 18.3682L46.8946 5.79219H50.2565L53.1045 13.8861L55.7812 5.79219H59.1003ZM46.1451 3.89926H38.0936V7.9462H46.0381V10.6877H38.0936V18.3899H34.8387V1.00547H46.1451V3.89926Z" fill="white"/>
</svg>

<svg width="80" height="24" fill="none" xmlns="http://www.w3.org/2000/svg"><path fill-rule="evenodd" clip-rule="evenodd" d="M0 7.556v.06l13.525 6.352 13.572-6.374v-.016L13.525 1.204 0 7.556zm4.876.03l8.649-4.063 8.65 4.063-8.65 4.062-8.65-4.062zm8.649 8.85L0 10.177v2.314l13.525 6.272 13.572-6.293v-2.315l-13.572 6.28zm0 4.693L0 14.871v2.315l13.525 6.272 13.572-6.294V14.85l-13.572 6.28zM76.916 12.102c0-.537-.092-1.037-.278-1.501a3.929 3.929 0 00-.76-1.219 3.49 3.49 0 00-1.124-.816 3.257 3.257 0 00-1.37-.293c-.486 0-.943.097-1.371.293a3.488 3.488 0 00-1.124.816 3.925 3.925 0 00-.76 1.219 4.006 4.006 0 00-.279 1.5c0 .538.093 1.038.278 1.502.186.464.44.87.76 1.219.322.348.697.62 1.125.816.428.195.885.293 1.37.293.486 0 .942-.098 1.37-.293a3.489 3.489 0 001.125-.816c.321-.348.575-.755.76-1.219.186-.464.278-.964.278-1.501zm3.084 0c0 .943-.171 1.817-.514 2.622a6.395 6.395 0 01-1.413 2.088 6.718 6.718 0 01-2.11 1.393 6.561 6.561 0 01-2.58.511c-.913 0-1.77-.17-2.57-.511a6.656 6.656 0 01-2.098-1.403 6.57 6.57 0 01-1.927-4.7 6.4 6.4 0 01.524-2.578 6.796 6.796 0 011.425-2.11c.599-.603 1.299-1.074 2.098-1.415.8-.341 1.649-.511 2.548-.511.914 0 1.774.17 2.58.51.807.342 1.51.806 2.11 1.393.6.588 1.07 1.288 1.413 2.1.343.812.514 1.683.514 2.61zm-14.283 6.223c-.242.116-.517.21-.824.283a4.132 4.132 0 01-.953.108c-.457 0-.896-.061-1.317-.185a2.872 2.872 0 01-1.103-.598 2.893 2.893 0 01-.75-1.077c-.185-.442-.278-.976-.278-1.6V.332h3.148v14.382c0 .522.103.881.31 1.077.208.196.454.294.74.294.356 0 .699-.11 1.027-.327v2.568zM59.1 5.792L53.533 20.74c-.414 1.117-.957 1.922-1.628 2.415-.67.493-1.47.74-2.398.74a3.753 3.753 0 01-.963-.13l-1.028-2.916c.242.116.492.206.75.271.256.066.499.098.727.098.485 0 .928-.112 1.328-.337.4-.225.706-.642.92-1.25l.429-1.263-4.775-12.576h3.361l2.849 8.094 2.676-8.094h3.32zM46.145 3.9h-8.051v4.047h7.944v2.742h-7.944v7.702h-3.255V1.005h11.306V3.9z" fill="#fff"/></svg>
